Flat-Remix-Dark/apps/scalable/minuet.svg

<svg xmlns="http://www.w3.org/2000/svg" xmlns:xlink="http://www.w3.org/1999/xlink" width="384pt" height="384pt" version="1.1" viewBox="0 0 384 384"> <defs> <filter id="alpha" width="100%" height="100%" x="0%" y="0%" filterUnits="objectBoundingBox"> <feColorMatrix in="SourceGraphic" type="matrix" values="0 0 0 0 1 0 0 0 0 1 0 0 0 0 1 0 0 0 1 0"/> </filter> <mask id="mask0"> <g filter="url(#alpha)"> <rect width="384" height="384" x="0" y="0" style="fill:rgb(0%,0%,0%);fill-opacity:0.2"/> </g> </mask> <clipPath id="clip1"> <rect width="384" height="384" x="0" y="0"/> </clipPath> <g id="surface5" clip-path="url(#clip1)"> <path style="fill:rgb(0%,0%,0%)" d="M 342 326 L 342 69.996094 C 342 61.136719 335.3125 54 327 54 L 57 54 C 48.691406 54 42 61.136719 42 70 L 42 326.003906 C 42 334.867188 48.691406 342 57 342 L 327 342 C 335.3125 342 342 334.867188 342 326.003906 Z M 342 326"/> </g> <mask id="mask1"> <g filter="url(#alpha)"> <rect width="384" height="384" x="0" y="0" style="fill:rgb(0%,0%,0%);fill-opacity:0.2"/> </g> </mask> <clipPath id="clip2"> <rect width="384" height="384" x="0" y="0"/> </clipPath> <g id="surface8" clip-path="url(#clip2)"> <path style="fill:rgb(0%,0%,0%)" d="M 77.710938 78 L 90.289062 78 C 96.757812 78 102 83.242188 102 89.710938 L 102 312.289062 C 102 318.757812 96.757812 324 90.289062 324 L 77.710938 324 C 71.242188 324 66 318.757812 66 312.289062 L 66 89.710938 C 66 83.242188 71.242188 78 77.710938 78 Z M 77.710938 78"/> </g> <mask id="mask2"> <g filter="url(#alpha)"> <rect width="384" height="384" x="0" y="0" style="fill:rgb(0%,0%,0%);fill-opacity:0.2"/> </g> </mask> <clipPath id="clip3"> <rect width="384" height="384" x="0" y="0"/> </clipPath> <g id="surface11" clip-path="url(#clip3)"> <path style="fill:rgb(0%,0%,0%)" d="M 113.710938 78 L 126.289062 78 C 132.757812 78 138 83.242188 138 89.710938 L 138 312.289062 C 138 318.757812 132.757812 324 126.289062 324 L 113.710938 324 C 107.242188 324 102 318.757812 102 312.289062 L 102 89.710938 C 102 83.242188 107.242188 78 113.710938 78 Z M 113.710938 78"/> </g> <mask id="mask3"> <g filter="url(#alpha)"> <rect width="384" height="384" x="0" y="0" style="fill:rgb(0%,0%,0%);fill-opacity:0.2"/> </g> </mask> <clipPath id="clip4"> <rect width="384" height="384" x="0" y="0"/> </clipPath> <g id="surface14" clip-path="url(#clip4)"> <path style="fill:rgb(0%,0%,0%)" d="M 149.710938 78 L 162.289062 78 C 168.757812 78 174 83.242188 174 89.710938 L 174 312.289062 C 174 318.757812 168.757812 324 162.289062 324 L 149.710938 324 C 143.242188 324 138 318.757812 138 312.289062 L 138 89.710938 C 138 83.242188 143.242188 78 149.710938 78 Z M 149.710938 78"/> </g> <mask id="mask4"> <g filter="url(#alpha)"> <rect width="384" height="384" x="0" y="0" style="fill:rgb(0%,0%,0%);fill-opacity:0.2"/> </g> </mask> <clipPath id="clip5"> <rect width="384" height="384" x="0" y="0"/> </clipPath> <g id="surface17" clip-path="url(#clip5)"> <path style="fill:rgb(0%,0%,0%)" d="M 185.710938 78 L 198.289062 78 C 204.757812 78 210 83.242188 210 89.710938 L 210 312.289062 C 210 318.757812 204.757812 324 198.289062 324 L 185.710938 324 C 179.242188 324 174 318.757812 174 312.289062 L 174 89.710938 C 174 83.242188 179.242188 78 185.710938 78 Z M 185.710938 78"/> </g> <mask id="mask5"> <g filter="url(#alpha)"> <rect width="384" height="384" x="0" y="0" style="fill:rgb(0%,0%,0%);fill-opacity:0.2"/> </g> </mask> <clipPath id="clip6"> <rect width="384" height="384" x="0" y="0"/> </clipPath> <g id="surface20" clip-path="url(#clip6)"> <path style="fill:rgb(0%,0%,0%)" d="M 221.710938 78 L 234.289062 78 C 240.757812 78 246 83.242188 246 89.710938 L 246 312.289062 C 246 318.757812 240.757812 324 234.289062 324 L 221.710938 324 C 215.242188 324 210 318.757812 210 312.289062 L 210 89.710938 C 210 83.242188 215.242188 78 221.710938 78 Z M 221.710938 78"/> </g> <mask id="mask6"> <g filter="url(#alpha)"> <rect width="384" height="384" x="0" y="0" style="fill:rgb(0%,0%,0%);fill-opacity:0.2"/> </g> </mask> <clipPath id="clip7"> <rect width="384" height="384" x="0" y="0"/> </clipPath> <g id="surface23" clip-path="url(#clip7)"> <path style="fill:rgb(0%,0%,0%)" d="M 257.710938 78 L 270.289062 78 C 276.757812 78 282 83.242188 282 89.710938 L 282 312.289062 C 282 318.757812 276.757812 324 270.289062 324 L 257.710938 324 C 251.242188 324 246 318.757812 246 312.289062 L 246 89.710938 C 246 83.242188 251.242188 78 257.710938 78 Z M 257.710938 78"/> </g> <mask id="mask7"> <g filter="url(#alpha)"> <rect width="384" height="384" x="0" y="0" style="fill:rgb(0%,0%,0%);fill-opacity:0.2"/> </g> </mask> <clipPath id="clip8"> <rect width="384" height="384" x="0" y="0"/> </clipPath> <g id="surface26" clip-path="url(#clip8)"> <path style="fill:rgb(0%,0%,0%)" d="M 293.710938 78 L 306.289062 78 C 312.757812 78 318 83.242188 318 89.710938 L 318 312.289062 C 318 318.757812 312.757812 324 306.289062 324 L 293.710938 324 C 287.242188 324 282 318.757812 282 312.289062 L 282 89.710938 C 282 83.242188 287.242188 78 293.710938 78 Z M 293.710938 78"/> </g> <mask id="mask8"> <g filter="url(#alpha)"> <rect width="384" height="384" x="0" y="0" style="fill:rgb(0%,0%,0%);fill-opacity:0.2"/> </g> </mask> <clipPath id="clip9"> <rect width="384" height="384" x="0" y="0"/> </clipPath> <g id="surface29" clip-path="url(#clip9)"> <path style="fill:rgb(0%,0%,0%)" d="M 90 201.421875 L 90 207.421875 C 90 212.171875 92.664062 216 95.953125 216 L 108.070312 216 C 111.359375 216 114 212.171875 114 207.421875 L 114 201.421875 C 114 206.171875 111.359375 210 108.070312 210 L 95.953125 210 C 92.664062 210 90 206.171875 90 201.421875 Z M 126 201.421875 L 126 207.421875 C 126 212.171875 128.640625 216 131.929688 216 L 144.070312 216 C 147.359375 216 150 212.171875 150 207.421875 L 150 201.421875 C 150 206.171875 147.359375 210 144.070312 210 L 131.929688 210 C 128.640625 210 126 206.171875 126 201.421875 Z M 198 201.421875 L 198 207.421875 C 198 212.171875 200.640625 216 203.929688 216 L 216.070312 216 C 219.359375 216 222 212.171875 222 207.421875 L 222 201.421875 C 222 206.171875 219.359375 210 216.070312 210 L 203.929688 210 C 200.640625 210 198 206.171875 198 201.421875 Z M 234 201.421875 L 234 207.421875 C 234 212.171875 236.640625 216 239.929688 216 L 252.070312 216 C 255.359375 216 258 212.171875 258 207.421875 L 258 201.421875 C 258 206.171875 255.359375 210 252.070312 210 L 239.929688 210 C 236.640625 210 234 206.171875 234 201.421875 Z M 270 201.421875 L 270 207.421875 C 270 212.171875 272.640625 216 275.929688 216 L 288.070312 216 C 291.359375 216 294 212.171875 294 207.421875 L 294 201.421875 C 294 206.171875 291.359375 210 288.070312 210 L 275.929688 210 C 272.640625 210 270 206.171875 270 201.421875 Z M 270 201.421875"/> </g> <mask id="mask9"> <g filter="url(#alpha)"> <rect width="384" height="384" x="0" y="0" style="fill:rgb(0%,0%,0%);fill-opacity:0.101961"/> </g> </mask> <clipPath id="clip10"> <rect width="384" height="384" x="0" y="0"/> </clipPath> <g id="surface32" clip-path="url(#clip10)"> <path style="fill:rgb(100.000%,100.000%,100.000%)" d="M 95.953125 60 C 92.664062 60 90 63.824219 90 68.578125 L 90 74.578125 C 90 69.824219 92.664062 66 95.953125 66 L 108.070312 66 C 111.359375 66 114 69.824219 114 74.578125 L 114 68.578125 C 114 63.824219 111.359375 60 108.070312 60 Z M 131.929688 60 C 128.640625 60 126 63.824219 126 68.578125 L 126 74.578125 C 126 69.824219 128.640625 66 131.929688 66 L 144.070312 66 C 147.359375 66 150 69.824219 150 74.578125 L 150 68.578125 C 150 63.824219 147.359375 60 144.070312 60 Z M 203.929688 60 C 200.640625 60 198 63.824219 198 68.578125 L 198 74.578125 C 198 69.824219 200.640625 66 203.929688 66 L 216.070312 66 C 219.359375 66 222 69.824219 222 74.578125 L 222 68.578125 C 222 63.824219 219.359375 60 216.070312 60 Z M 239.929688 60 C 236.640625 60 234 63.824219 234 68.578125 L 234 74.578125 C 234 69.824219 236.640625 66 239.929688 66 L 252.070312 66 C 255.359375 66 258 69.824219 258 74.578125 L 258 68.578125 C 258 63.824219 255.359375 60 252.070312 60 Z M 275.929688 60 C 272.640625 60 270 63.824219 270 68.578125 L 270 74.578125 C 270 69.824219 272.640625 66 275.929688 66 L 288.070312 66 C 291.359375 66 294 69.824219 294 74.578125 L 294 68.578125 C 294 63.824219 291.359375 60 288.070312 60 Z M 275.929688 60"/> </g> <mask id="mask10"> <g filter="url(#alpha)"> <rect width="384" height="384" x="0" y="0" style="fill:rgb(0%,0%,0%);fill-opacity:0.101961"/> </g> </mask> <clipPath id="clip11"> <rect width="384" height="384" x="0" y="0"/> </clipPath> <g id="surface35" clip-path="url(#clip11)"> <path style="fill:rgb(100.000%,100.000%,100.000%)" d="M 57 48 C 48.691406 48 42 55.132812 42 63.996094 L 42 69.996094 C 42 61.132812 48.691406 54 57 54 L 327 54 C 335.3125 54 342 61.136719 342 69.996094 L 342 63.996094 C 342 55.136719 335.3125 48 327 48 Z M 57 48"/> </g> </defs> <g> <use mask="url(#mask0)" xlink:href="#surface5"/> <path d="M 342 320 L 342 63.996094 C 342 55.136719 335.3125 48 327 48 L 57 48 C 48.691406 48 42 55.136719 42 64 L 42 320.003906 C 42 328.867188 48.691406 336 57 336 L 327 336 C 335.3125 336 342 328.867188 342 320.003906 Z M 342 320"/> <use mask="url(#mask1)" xlink:href="#surface8"/> <path style="fill:rgb(88.235%,36.862%,36.862%)" d="M 77.710938 72 L 90.289062 72 C 96.757812 72 102 77.242188 102 83.710938 L 102 306.289062 C 102 312.757812 96.757812 318 90.289062 318 L 77.710938 318 C 71.242188 318 66 312.757812 66 306.289062 L 66 83.710938 C 66 77.242188 71.242188 72 77.710938 72 Z M 77.710938 72"/> <use mask="url(#mask2)" xlink:href="#surface11"/> <path style="fill:rgb(99.215%,59.215%,20.000%)" d="M 113.710938 72 L 126.289062 72 C 132.757812 72 138 77.242188 138 83.710938 L 138 306.289062 C 138 312.757812 132.757812 318 126.289062 318 L 113.710938 318 C 107.242188 318 102 312.757812 102 306.289062 L 102 83.710938 C 102 77.242188 107.242188 72 113.710938 72 Z M 113.710938 72"/> <use mask="url(#mask3)" xlink:href="#surface14"/> <path style="fill:rgb(100.000%,82.352%,34.901%)" d="M 149.710938 72 L 162.289062 72 C 168.757812 72 174 77.242188 174 83.710938 L 174 306.289062 C 174 312.757812 168.757812 318 162.289062 318 L 149.710938 318 C 143.242188 318 138 312.757812 138 306.289062 L 138 83.710938 C 138 77.242188 143.242188 72 149.710938 72 Z M 149.710938 72"/> <use mask="url(#mask4)" xlink:href="#surface17"/> <path style="fill:rgb(14.117%,66.666%,43.137%)" d="M 185.710938 72 L 198.289062 72 C 204.757812 72 210 77.242188 210 83.710938 L 210 306.289062 C 210 312.757812 204.757812 318 198.289062 318 L 185.710938 318 C 179.242188 318 174 312.757812 174 306.289062 L 174 83.710938 C 174 77.242188 179.242188 72 185.710938 72 Z M 185.710938 72"/> <use mask="url(#mask5)" xlink:href="#surface20"/> <path style="fill:rgb(27.843%,70.588%,62.352%)" d="M 221.710938 72 L 234.289062 72 C 240.757812 72 246 77.242188 246 83.710938 L 246 306.289062 C 246 312.757812 240.757812 318 234.289062 318 L 221.710938 318 C 215.242188 318 210 312.757812 210 306.289062 L 210 83.710938 C 210 77.242188 215.242188 72 221.710938 72 Z M 221.710938 72"/> <use mask="url(#mask6)" xlink:href="#surface23"/> <path style="fill:rgb(23.137%,41.568%,72.549%)" d="M 257.710938 72 L 270.289062 72 C 276.757812 72 282 77.242188 282 83.710938 L 282 306.289062 C 282 312.757812 276.757812 318 270.289062 318 L 257.710938 318 C 251.242188 318 246 312.757812 246 306.289062 L 246 83.710938 C 246 77.242188 251.242188 72 257.710938 72 Z M 257.710938 72"/> <use mask="url(#mask7)" xlink:href="#surface26"/> <path style="fill:rgb(59.215%,33.333%,70.196%)" d="M 293.710938 72 L 306.289062 72 C 312.757812 72 318 77.242188 318 83.710938 L 318 306.289062 C 318 312.757812 312.757812 318 306.289062 318 L 293.710938 318 C 287.242188 318 282 312.757812 282 306.289062 L 282 83.710938 C 282 77.242188 287.242188 72 293.710938 72 Z M 293.710938 72"/> <use mask="url(#mask8)" xlink:href="#surface29"/> <path d="M 95.957031 60.003906 C 92.667969 60.003906 90.003906 63.828125 90.003906 68.582031 L 90.003906 201.421875 C 90.003906 206.171875 92.667969 210 95.957031 210 L 108.074219 210 C 111.363281 210 114.003906 206.171875 114.003906 201.421875 L 114.003906 68.582031 C 114.003906 63.828125 111.363281 60.003906 108.074219 60.003906 Z M 131.929688 60.003906 C 128.644531 60.003906 126.003906 63.828125 126.003906 68.582031 L 126.003906 201.421875 C 126.003906 206.171875 128.644531 210 131.929688 210 L 144.070312 210 C 147.359375 210 150 206.171875 150 201.421875 L 150 68.582031 C 150 63.828125 147.359375 60.003906 144.070312 60.003906 Z M 203.929688 60.003906 C 200.640625 60.003906 198.003906 63.828125 198.003906 68.582031 L 198.003906 201.421875 C 198.003906 206.171875 200.640625 210 203.929688 210 L 216.070312 210 C 219.359375 210 222 206.171875 222 201.421875 L 222 68.582031 C 222 63.828125 219.359375 60.003906 216.070312 60.003906 Z M 239.929688 60.003906 C 236.640625 60.003906 234 63.828125 234 68.582031 L 234 201.421875 C 234 206.171875 236.640625 210 239.929688 210 L 252.070312 210 C 255.359375 210 257.996094 206.171875 257.996094 201.421875 L 257.996094 68.582031 C 257.996094 63.828125 255.359375 60.003906 252.070312 60.003906 Z M 275.929688 60.003906 C 272.640625 60.003906 270 63.828125 270 68.582031 L 270 201.421875 C 270 206.171875 272.640625 210 275.929688 210 L 288.070312 210 C 291.355469 210 293.996094 206.171875 293.996094 201.421875 L 293.996094 68.582031 C 293.996094 63.828125 291.355469 60.003906 288.070312 60.003906 Z M 275.929688 60.003906"/> <use mask="url(#mask9)" xlink:href="#surface32"/> <use mask="url(#mask10)" xlink:href="#surface35"/> </g> </svg>

<svg width="512" height="512" version="1.1" viewBox="0 0 384 384" xmlns="http://www.w3.org/2000/svg" xmlns:xlink="http://www.w3.org/1999/xlink"><defs><filter id="alpha" x="0%" y="0%" width="100%" height="100%"><feColorMatrix in="SourceGraphic" values="0 0 0 0 1 0 0 0 0 1 0 0 0 0 1 0 0 0 1 0"/></filter><mask id="n"><g filter="url(#alpha)"><rect width="384" height="384" fill-opacity=".2"/></g></mask><clipPath id="x"><rect width="384" height="384"/></clipPath><g id="a" clip-path="url(#x)"><path d="m77.711 78h12.578c6.4688 0 11.711 5.2422 11.711 11.711v222.58c0 6.4688-5.2422 11.711-11.711 11.711h-12.578c-6.4688 0-11.711-5.2422-11.711-11.711v-222.58c0-6.4688 5.2422-11.711 11.711-11.711z"/></g><mask id="m"><g filter="url(#alpha)"><rect width="384" height="384" fill-opacity=".2"/></g></mask><clipPath id="v"><rect width="384" height="384"/></clipPath><g id="g" clip-path="url(#v)"><path d="m113.71 78h12.578c6.4688 0 11.711 5.2422 11.711 11.711v222.58c0 6.4688-5.2422 11.711-11.711 11.711h-12.578c-6.4688 0-11.711-5.2422-11.711-11.711v-222.58c0-6.4688 5.2422-11.711 11.711-11.711z"/></g><mask id="l"><g filter="url(#alpha)"><rect width="384" height="384" fill-opacity=".2"/></g></mask><clipPath id="u"><rect width="384" height="384"/></clipPath><g id="f" clip-path="url(#u)"><path d="m149.71 78h12.578c6.4688 0 11.711 5.2422 11.711 11.711v222.58c0 6.4688-5.2422 11.711-11.711 11.711h-12.578c-6.4688 0-11.711-5.2422-11.711-11.711v-222.58c0-6.4688 5.2422-11.711 11.711-11.711z"/></g><mask id="k"><g filter="url(#alpha)"><rect width="384" height="384" fill-opacity=".2"/></g></mask><clipPath id="s"><rect width="384" height="384"/></clipPath><g id="e" clip-path="url(#s)"><path d="m185.71 78h12.578c6.4688 0 11.711 5.2422 11.711 11.711v222.58c0 6.4688-5.2422 11.711-11.711 11.711h-12.578c-6.4688 0-11.711-5.2422-11.711-11.711v-222.58c0-6.4688 5.2422-11.711 11.711-11.711z"/></g><mask id="j"><g filter="url(#alpha)"><rect width="384" height="384" fill-opacity=".2"/></g></mask><clipPath id="r"><rect width="384" height="384"/></clipPath><g id="d" clip-path="url(#r)"><path d="m221.71 78h12.578c6.4688 0 11.711 5.2422 11.711 11.711v222.58c0 6.4688-5.2422 11.711-11.711 11.711h-12.578c-6.4688 0-11.711-5.2422-11.711-11.711v-222.58c0-6.4688 5.2422-11.711 11.711-11.711z"/></g><mask id="i"><g filter="url(#alpha)"><rect width="384" height="384" fill-opacity=".2"/></g></mask><clipPath id="p"><rect width="384" height="384"/></clipPath><g id="c" clip-path="url(#p)"><path d="m257.71 78h12.578c6.4688 0 11.711 5.2422 11.711 11.711v222.58c0 6.4688-5.2422 11.711-11.711 11.711h-12.578c-6.4688 0-11.711-5.2422-11.711-11.711v-222.58c0-6.4688 5.2422-11.711 11.711-11.711z"/></g><clipPath id="o"><rect width="384" height="384"/></clipPath><clipPath id="y"><rect width="384" height="384"/></clipPath></defs><path d="m342 327.5v-256c0-8.8594-6.6875-15.996-15-15.996h-270c-8.3086 0-15 7.1367-15 16v256c0 8.8633 6.6914 15.996 15 15.996h270c8.3125 0 15-7.1328 15-15.996z" fill="#090202" opacity=".3"/><path d="m342 320v-256c0-8.8594-6.6875-15.996-15-15.996h-270c-8.3086 0-15 7.1367-15 16v256c0 8.8633 6.6914 15.996 15 15.996h270c8.3125 0 15-7.1328 15-15.996z" fill="#191919"/><g><path d="m257.71 72h12.578c6.4688 0 11.711 5.2422 11.711 11.711v222.58c0 6.4688-5.2422 11.711-11.711 11.711h-12.578c-6.4688 0-11.711-5.2422-11.711-11.711v-222.58c0-6.4688 5.2422-11.711 11.711-11.711z" fill="#3a69b8"/><path d="m293.71 72h12.578c6.4688 0 11.711 5.2422 11.711 11.711v222.58c0 6.4688-5.2422 11.711-11.711 11.711h-12.578c-6.4688 0-11.711-5.2422-11.711-11.711v-222.58c0-6.4688 5.2422-11.711 11.711-11.711z" fill="#9654b2"/><path d="m221.71 72h12.578c6.4688 0 11.711 5.2422 11.711 11.711v222.58c0 6.4688-5.2422 11.711-11.711 11.711h-12.578c-6.4688 0-11.711-5.2422-11.711-11.711v-222.58c0-6.4688 5.2422-11.711 11.711-11.711z" fill="#46b39e"/><path d="m185.71 72h12.578c6.4688 0 11.711 5.2422 11.711 11.711v222.58c0 6.4688-5.2422 11.711-11.711 11.711h-12.578c-6.4688 0-11.711-5.2422-11.711-11.711v-222.58c0-6.4688 5.2422-11.711 11.711-11.711z" fill="#23a96d"/><path d="m149.71 72h12.578c6.4688 0 11.711 5.2422 11.711 11.711v222.58c0 6.4688-5.2422 11.711-11.711 11.711h-12.578c-6.4688 0-11.711-5.2422-11.711-11.711v-222.58c0-6.4688 5.2422-11.711 11.711-11.711z" fill="#ffd158"/><path d="m113.71 72h12.578c6.4688 0 11.711 5.2422 11.711 11.711v222.58c0 6.4688-5.2422 11.711-11.711 11.711h-12.578c-6.4688 0-11.711-5.2422-11.711-11.711v-222.58c0-6.4688 5.2422-11.711 11.711-11.711z" fill="#fc9633"/><path d="m77.711 72h12.578c6.4688 0 11.711 5.2422 11.711 11.711v222.58c0 6.4688-5.2422 11.711-11.711 11.711h-12.578c-6.4688 0-11.711-5.2422-11.711-11.711v-222.58c0-6.4688 5.2422-11.711 11.711-11.711z" fill="#e05d5d"/></g><path d="m95.957 60.004c-3.2891 0-5.9531 3.8242-5.9531 8.5781v132.84c0 4.75 2.6641 8.5781 5.9531 8.5781h12.117c3.2891 0 5.9297-3.8281 5.9297-8.5781v-132.84c0-4.7539-2.6406-8.5781-5.9297-8.5781zm35.973 0c-3.2852 0-5.9258 3.8242-5.9258 8.5781v132.84c0 4.75 2.6406 8.5781 5.9258 8.5781h12.141c3.2891 0 5.9297-3.8281 5.9297-8.5781v-132.84c0-4.7539-2.6406-8.5781-5.9297-8.5781zm72 0c-3.2891 0-5.9258 3.8242-5.9258 8.5781v132.84c0 4.75 2.6367 8.5781 5.9258 8.5781h12.141c3.2891 0 5.9297-3.8281 5.9297-8.5781v-132.84c0-4.7539-2.6406-8.5781-5.9297-8.5781zm36 0c-3.2891 0-5.9297 3.8242-5.9297 8.5781v132.84c0 4.75 2.6406 8.5781 5.9297 8.5781h12.141c3.2891 0 5.9258-3.8281 5.9258-8.5781v-132.84c0-4.7539-2.6367-8.5781-5.9258-8.5781zm36 0c-3.2891 0-5.9297 3.8242-5.9297 8.5781v132.84c0 4.75 2.6406 8.5781 5.9297 8.5781h12.141c3.2852 0 5.9258-3.8281 5.9258-8.5781v-132.84c0-4.7539-2.6406-8.5781-5.9258-8.5781z"/><path transform="scale(.75)" d="m127.94 80.006c-4.3854 0-7.9375 5.099-7.9375 11.438v10c0-6.3385 3.5521-11.438 7.9375-11.438h16.156c4.3854 0 7.9062 5.099 7.9062 11.438v-10c0-6.3385-3.5208-11.438-7.9062-11.438h-16.156zm47.963 0c-4.3802 0-7.9004 5.099-7.9004 11.438v10c0-6.3385 3.5202-11.438 7.9004-11.438h16.188c4.3854 0 7.9062 5.099 7.9062 11.438v-10c0-6.3385-3.5208-11.438-7.9062-11.438h-16.188zm96 0c-4.3854 0-7.9004 5.099-7.9004 11.438v10c0-6.3385 3.515-11.438 7.9004-11.438h16.188c4.3854 0 7.9062 5.099 7.9062 11.438v-10c0-6.3385-3.5208-11.438-7.9062-11.438h-16.188zm48 0c-4.3854 0-7.9062 5.099-7.9062 11.438v10c0-6.3385 3.5208-11.438 7.9062-11.438h16.188c4.3854 0 7.9004 5.099 7.9004 11.438v-10c0-6.3385-3.515-11.438-7.9004-11.438h-16.188zm48 0c-4.3854 0-7.9062 5.099-7.9062 11.438v10c0-6.3385 3.5208-11.438 7.9062-11.438h16.188c4.3802 0 7.9004 5.099 7.9004 11.438v-10c0-6.3385-3.5202-11.438-7.9004-11.438h-16.188z" fill="#fff" opacity=".2" stroke-width="1.3333"/><path d="m95.957 67.504c-3.2891 0-5.9531 3.8242-5.9531 8.5781v132.84c0 4.75 2.6641 8.5781 5.9531 8.5781h12.117c3.2891 0 5.9297-3.8281 5.9297-8.5781v-132.84c0-4.7539-2.6406-8.5781-5.9297-8.5781zm35.973 0c-3.2852 0-5.9258 3.8242-5.9258 8.5781v132.84c0 4.75 2.6406 8.5781 5.9258 8.5781h12.141c3.2891 0 5.9297-3.8281 5.9297-8.5781v-132.84c-1e-5 -4.7539-2.6406-8.5781-5.9297-8.5781zm72 0c-3.2891 0-5.9258 3.8242-5.9258 8.5781v132.84c0 4.75 2.6367 8.5781 5.9258 8.5781h12.141c3.2891 0 5.9297-3.8281 5.9297-8.5781v-132.84c0-4.7539-2.6406-8.5781-5.9297-8.5781zm36 0c-3.2891 0-5.9297 3.8242-5.9297 8.5781v132.84c0 4.75 2.6406 8.5781 5.9297 8.5781h12.141c3.2891 0 5.9258-3.8281 5.9258-8.5781v-132.84c0-4.7539-2.6367-8.5781-5.9258-8.5781zm36 0c-3.2891 0-5.9297 3.8242-5.9297 8.5781v132.84c0 4.75 2.6406 8.5781 5.9297 8.5781h12.141c3.2852 0 5.9258-3.8281 5.9258-8.5781v-132.84c0-4.7539-2.6406-8.5781-5.9258-8.5781z" opacity=".3"/><path transform="scale(.75)" d="m76 64c-11.078 0-20 9.5163-20 21.334v10c0-11.818 8.9219-21.334 20-21.334h360c11.083 0 20 9.5156 20 21.328v-10c0-11.812-8.9167-21.328-20-21.328h-360z" fill="#fff" opacity=".1" stroke-width="1.3333"/><path transform="scale(.75)" d="m88 388.39v20c0 8.625 6.9902 15.613 15.615 15.613h16.771c8.625 0 15.613-6.9883 15.613-15.613 0 8.625 6.9902 15.613 15.615 15.613h16.771c8.625 0 15.613-6.9883 15.613-15.613 0 8.625 6.9902 15.613 15.615 15.613h16.771c8.625 0 15.613-6.9883 15.613-15.613 0 8.625 6.9902 15.613 15.615 15.613h16.771c8.625 0 15.613-6.9883 15.613-15.613 0 8.625 6.9902 15.613 15.615 15.613h16.771c8.625 0 15.613-6.9883 15.613-15.613 0 8.625 6.9902 15.613 15.615 15.613h16.771c8.625 0 15.613-6.9883 15.613-15.613 0 8.625 6.9902 15.613 15.615 15.613h16.771c8.625 0 15.613-6.9883 15.613-15.613v-20c0 8.625-6.9883 15.613-15.613 15.613h-16.771c-8.625 0-15.615-6.9883-15.615-15.613 0 8.625-6.9883 15.613-15.613 15.613h-16.771c-8.625 0-15.615-6.9883-15.615-15.613 0 8.625-6.9883 15.613-15.613 15.613h-16.771c-8.625 0-15.615-6.9883-15.615-15.613 0 8.625-6.9883 15.613-15.613 15.613h-16.771c-8.625 0-15.615-6.9883-15.615-15.613 0 8.625-6.9883 15.613-15.613 15.613h-16.771c-8.625 0-15.615-6.9883-15.615-15.613 0 8.625-6.9883 15.613-15.613 15.613h-16.771c-8.625 0-15.615-6.9883-15.615-15.613 0 8.625-6.9883 15.613-15.613 15.613h-16.771c-8.625 0-15.615-6.9883-15.615-15.613z" opacity=".3" stroke-width="1.3333"/></svg>
